X:1
T: Da Tushkar
C:R. Cooper
R:Reel
Q: 232
K:A
M:4/4
L:1/8
|:cB|Aa fa ed cB|A2 cA EA cA|ce fg af ec|d2 B2 B2 ag|
fg af ed cB|A2 cA EA cA|Bc de fe fg|a2 ec A2:|
dc|Be Ge BG EG|Ae cA EA cA|ce fg af ec|d2 B2 B2 dc|
Be Ge BG EG|Ae cA EA cA|Bc de fe fg|a2 A2 A2 dc|
Be Ge BG EG|Ae cA EA cA|ce fg af ec|d2 B2 B2 ag|
fg af ed cB|A2 cA EA cA|Bc de fe fg|a2 A2 A2||
